assets/logo-kyber-swap-grey.svg

<svg height="69" viewBox="0 0 167 69" width="167" xmlns="http://www.w3.org/2000/svg"><g fill="#282138" fill-rule="evenodd"><path d="m68.4080215 35.136492 6.1261824 7.0689841h-2.6312362l-6.1463451-7.0689841 5.5640367-6.2229649h2.6110735zm-4.8405892 7.0689841h2.1291404v-13.291949h-2.1291404z"/><path d="m80.017524 43.3331646c-.4153084.9534746-.9136785 1.6445733-1.4964252 2.074395-.5823084.4298216-1.2954554.6445127-2.1390026.6445127-.268252 0-.5424213-.0169204-.8236037-.0501019-.2811824-.0338408-.5492152-.0841624-.8034409-.1511847v-1.7924618c.2410761.0268089.4549764.0468057.6427966.0604299.1873819.0131847.3681889.0199968.5424212.0199968.4549764 0 .8599843-.0940509 1.2150236-.2817133.3548203-.1885414.6660276-.5774905.9340604-1.1683854l.4017205-.9260064-3.936773-9.4457484h2.2696221l2.8120433 7.2102803 2.9325813-7.2102803h2.2496785z"/><path d="m91.787649 34.0288662c-.374983 0-.7398846.0639459-1.0944856.1913981-.3550394.127672-.6728215.3256625-.9542231.5941911-.2811824.2685287-.5053832.6040796-.6728215 1.0068726-.1676575.402793-.2509384.8862325-.2509384 1.449879 0 .564086.0867874 1.0508217.2610197 1.460207.173794.4096051.4017205.7451561.6829029 1.0068726.2811824.2619363.5991837.4531147.9542231.5739745.3546011.1210797.7129278.1812899 1.0743229.1812899.428458 0 .8266719-.0806465 1.1952992-.2417198.3681889-.1610732.6859711-.3823567.9540039-.6645095.2675945-.2819332.4784265-.621.6324961-1.0169809.1540695-.3957612.2312139-.8356911.2312139-1.3191306s-.0771444-.9229299-.2312139-1.3189108c-.1540696-.3962007-.368189-.7352676-.6425775-1.0172007-.2746076-.2821528-.5958963-.5001401-.9640853-.654621-.3684081-.1540414-.7600472-.2316115-1.1751364-.2316115zm-2.952525-.5034363c.3747638-.4432261.8468347-.7921815 1.4159935-1.0473057.5691587-.2549045 1.19508-.3825764 1.8782021-.3825764.6958333 0 1.3386299.1307484 1.9279514.3926847.5893215.2617165 1.1014987.6242962 1.5367507 1.0875191.4350328.4632229.7731968 1.0103885 1.0142729 1.6414968s.3616142 1.3158344.3616142 2.0539586c0 .7387834-.1205381 1.4197739-.3616142 2.0442898-.2410761.6242962-.5759527 1.1681656-1.0041916 1.6313886-.4286771.4630031-.9373478.8255828-1.5266693 1.0872993-.5893215.2619363-1.2321181.3926847-1.9281706.3926847-.7365971 0-1.4094186-.1406369-2.0186837-.4230095-.6094843-.2817134-1.0947047-.6847261-1.4560997-1.2081593v1.4096656h-1.9483334v-15.1044076h2.1089777z"/><path d="m103.818969 33.8878777c-.723009 0-1.339068.2184268-1.847739.654621-.509109.4361943-.843547 1.023793-1.004411 1.762137h5.363067c-.027176-.7783376-.284689-1.3760446-.773416-1.7922421-.488946-.4159777-1.067967-.6245159-1.737501-.6245159m.060269-1.7924618c.656165 0 1.26543.1142675 1.827795.3423631.562584.228535 1.044517.5438694 1.446238.9464427.40172.4030127.715996.8833758.943922 1.4402101.227708.5572739.341452 1.1580574.341452 1.8023504 0 .2687484-.016876.5236528-.049969.7655923-.03375.2412803-.07035.4296019-.110456.5636465h-7.351507c.147276.8192102.508671 1.4571306 1.084623 1.9133217.575515.4564108 1.285374.6845063 2.129141.6845063.575514 0 1.097773-.1035 1.566556-.3118184.468784-.2083185.903816-.4935478 1.305537-.8561274l1.024354 1.4500987c-.522039.4966242-1.111361.8862325-1.767307 1.1679459-.656165.2821528-1.379394.4230095-2.169466.4230095-.763115 0-1.472975-.1309681-2.128921-.3926847-.656384-.2619363-1.218749-.6242962-1.687314-1.0872994-.4690022-.4634426-.836972-1.0101687-1.1047857-1.6414968-.2680328-.6311082-.4017205-1.3090223-.4017205-2.0341815 0-.7249395.1306195-1.4028535.3918583-2.0341815.2612389-.6306688.6226339-1.1780542 1.0844039-1.6412771.462209-.4632229 1.000905-.8286592 1.616964-1.0974076.615839-.2685287 1.285593-.4030128 2.008602-.4030128"/><path d="m115.689579 32.2162758c.174013 0 .324576.0101083.452127.0303248.127113.0199969.244144.0437293.351314.0703185v1.8731083h-.642797c-.388352 0-.760047.0571337-1.114867.1711815-.354821.1142675-.662741.2854491-.92376.5135446-.261239.228535-.468784.5135446-.622634.8559076-.15407.3423631-.230995.7420797-.230995 1.1982707v5.2765223h-2.109197v-9.888535h1.948553v1.3292389c.348026-.4698153.773197-.8255828 1.275292-1.0675223.502315-.2415 1.041011-.3623599 1.616964-.3623599"/><path d="m122.518849 28.6919799c.977235 0 1.834151.2250191 2.570748.6746179.736378.4500382 1.305536 1.0169809 1.707476 1.701707l-1.486344 1.147949c-.348464-.5100286-.75676-.9062293-1.225324-1.1881624-.468783-.2819331-.991042-.4230096-1.566556-.4230096-.535847 0-1.004411.1309682-1.406132.3929045-.40172.2617166-.602471.6680255-.602471 1.2182675 0 .255344.046681.4733312.140701.654621.093362.1810701.220694.3423631.381339.4834395.160863.1408567.35482.2685287.582527.3825765.227708.1142675.475359.2384235.743172.3724681l1.486563.6847261c.495302.2285351.943704.4702548 1.345424.7249395.401721.255344.736378.5337612 1.004411.8359109.267813.3021496.475139.6344044.622634.996984.147275.3625796.220913.7721847.220913 1.2283758 0 .5908949-.113744 1.1246561-.341451 1.6010637-.227927.4768472-.542202.8796401-.943923 1.208379-.40172.3291783-.873572.5840828-1.415993.7655924-.542422.18107-1.128237.2716051-1.757664.2716051-1.11158 0-2.095829-.2584204-2.952525-.7752612-.856916-.516621-1.540038-1.2182675-2.048709-2.1047197l1.506287-1.1479491c.187601.2821529.398433.5509013.632935.8058057.233844.2551243.492014.4799236.773197.6746179.281182.1946942.592389.3493949.93406.4632229.341232.1140478.719503.1711815 1.134811.1711815.682903 0 1.235186-.1643694 1.65707-.4935477.421664-.3287389.632715-.7818535.632715-1.3595637 0-.2546847-.04712-.4797038-.140701-.6743981-.093801-.1944745-.227927-.3656561-.40172-.5135446-.174233-.1476688-.37849-.2852293-.612553-.4129013-.234501-.1274522-.499028-.2584204-.79336-.3926847l-1.466181-.6847261c-.428677-.2015064-.830397-.4161975-1.205161-.6445127-.374983-.2283153-.703066-.4900319-.984248-.7855892-.281402-.2951178-.502096-.6273726-.662959-.9967643-.160645-.369172-.240857-.7884459-.240857-1.2587007 0-.5504618.110237-1.0473057.331151-1.4903121.221132-.4430064.522258-.8222866.904035-1.1378407.381558-.3153344.823604-.5570542 1.325699-.7249395.502096-.1678854 1.041011-.2518281 1.616964-.2518281"/><path d="m139.652084 38.7213057 2.550805-6.4044745h2.229516l-4.358437 10.1100382h-.723229l-3.113388-6.6055414-3.073282 6.6055414h-.72279l-4.378819-10.1100382h2.249678l2.590911 6.4649045 2.99285-6.6861879h.72301z"/><path d="m149.112349 40.7957885c.348027 0 .67589-.056914.984249-.1711815.307919-.1140478.579021-.275121.813303-.4834395.234282-.2080987.418376-.4564108.552502-.745156.133688-.2885255.20097-.6007835.20097-.9363344v-.1815096h-2.530861c-.562584 0-.994329.1008631-1.295674.3021497-.301126.2015064-.451908.5034363-.451908.906449 0 .429602.167219.7550446.502095.9765478.334658.2217229.743172.3324745 1.225324.3324745m.622634-8.7003726c.602691 0 1.151468.0876784 1.646989.2619363.495301.1746975.920472.4328981 1.275511.7752612.354601.342363.632496.7721847.833466 1.2888057.20097.5172803.301345 1.1180637.301345 1.8025701v5.9814649h-1.968277v-1.1077356c-.348464.4166369-.790291.7420796-1.325699.9767675-.535846.2349076-1.144892.3524713-1.828014.3524713-.52204 0-.994111-.067242-1.415994-.2015063-.421664-.1340446-.783278-.3285192-1.084623-.5838631-.301345-.2549045-.532121-.5570541-.692985-.9062293-.160644-.3491752-.240856-.738344-.240856-1.1683854 0-.8723885.327863-1.5604108.984248-2.0640668.655946-.5032166 1.539599-.7552644 2.651179-.7552644h2.7921v-.644293c0-.6849458-.181026-1.2085987-.542421-1.5709586-.361395-.3623598-.883654-.5438694-1.566557-.5438694-.575952 0-1.078267.1278917-1.506506.3825765-.428677.2553439-.843767.6179235-1.245487 1.0877388l-1.205161-1.2485924c.508889-.7251592 1.117935-1.2589203 1.828014-1.6012834.709421-.342363 1.479331-.5135446 2.309728-.5135446"/><path d="m161.7864 34.0288662c-.361395 0-.719941.0639459-1.074542.1913981-.35482.127672-.67304.3221465-.954223.5838631-.281182.2617165-.50889.5941911-.682903.9972038-.174232.4025733-.261019.885793-.261019 1.449879 0 .5638662.0835 1.0473057.251157 1.449879.167219.4030127.391639.7387834.672602 1.0070923.281402.2687484.599403.4665191.954224.5941911.354601.1274522.719721.1911784 1.094704.1911784.41509 0 .806729-.0769109 1.174918-.2313918.368189-.1542611.689696-.3729076.964304-.6548407.274388-.2817134.488508-.6205605.642577-1.0167612.15407-.3959809.230995-.8359108.230995-1.3193503 0-.4832197-.076925-.9229299-.230995-1.3191306-.154069-.3955414-.364901-.734828-.632496-1.0169809-.268032-.2819331-.586034-.5034363-.954223-.6645095-.368627-.1610733-.766622-.2417198-1.19508-.2417198m.341452-1.9333184c.696052 0 1.342355.1307484 1.938252.3926847.595677.2617165 1.107854.6242962 1.536531 1.0875191.428458.4632229.763335 1.0068726 1.004411 1.6313885.241076.6242962.361614 1.3057261.361614 2.0440701 0 .7385637-.120538 1.4230701-.361614 2.0541783-.241076.6313281-.57924 1.1782739-1.014492 1.6414969-.435252.4630031-.947429.8255828-1.536532 1.0872993-.589321.2619363-1.232118.3926847-1.92817.3926847-.682903 0-1.309044-.1208598-1.877983-.3623598-.569378-.2417198-1.041449-.5906752-1.416213-1.0473058v4.8135191h-2.108978v-13.5138917h1.948553v1.4301019c.361395-.5238726.843547-.9295223 1.446238-1.2184872.602471-.2885255 1.271786-.4328981 2.008383-.4328981"/><path d="m2.5733122 18.2323051 18.0644908-13.81582166-6.4588674 30.15014336 6.4588674 30.150363-18.0644908-13.8158216zm15.4810315 16.3343217 25.4359409-14.6484364v29.2764364zm5.5053018-31.57914655 18.9770735 14.51505095-25.2001246 14.5148312zm-6.2230511 34.12863055 25.2104252 14.5045032-18.9974554 14.525379zm3.6189908-36.19467513-19.61263782 15.00815923c-.85077953.6478089-1.34301313 1.655121-1.34301313 2.7241815v31.8259204c0 1.0690605.50231496 2.0765924 1.34301313 2.7239618l19.61263782 15.008379c1.2200643.9354554 2.9220617.9354554 4.1419068 0l19.612857-15.008379c.8507795-.6473694 1.3430131-1.6549013 1.3430131-2.7239618v-31.8259204c0-1.0690605-.502315-2.0763726-1.3430131-2.7241815l-19.612857-15.00815923c-1.2198451-.93545542-2.9218425-.93545542-4.1419068 0z"/></g></svg>

<?xml version="1.0" encoding="UTF-8"?>
<svg width="167px" height="69px" viewBox="0 0 167 69" version="1.1" xmlns="http://www.w3.org/2000/svg" xmlns:xlink="http://www.w3.org/1999/xlink">
    <!-- Generator: Sketch 52.2 (67145) - http://www.bohemiancoding.com/sketch -->
    <title>Logo</title>
    <desc>Created with Sketch.</desc>
    <g id="Designs" stroke="none" stroke-width="1" fill="none" fill-rule="evenodd">
        <g id="Home" transform="translate(-157.000000, -4161.000000)" fill="#282138">
            <g id="JOIN-THE-WBTC-COMMUNITY" transform="translate(0.000000, 3815.000000)">
                <g id="SECTION---JOIN-THE-WBTC-COMMUNITY" transform="translate(130.000000, 85.000000)">
                    <g id="Logo-MakerDao" transform="translate(0.000000, 246.000000)">
                        <g id="Logo" transform="translate(27.000000, 15.000000)">
                            <path d="M68.4080215,35.136492 L74.5342039,42.2054761 L71.9029677,42.2054761 L65.7566226,35.136492 L71.3206593,28.9135271 L73.9317328,28.9135271 L68.4080215,35.136492 Z M63.5674323,42.2054761 L65.6965727,42.2054761 L65.6965727,28.9135271 L63.5674323,28.9135271 L63.5674323,42.2054761 Z" id="Fill-1"></path>
                            <path d="M80.017524,43.3331646 C79.6022156,44.2866392 79.1038455,44.9777379 78.5210988,45.4075596 C77.9387904,45.8373812 77.2256434,46.0520723 76.3820962,46.0520723 C76.1138442,46.0520723 75.8396749,46.0351519 75.5584925,46.0019704 C75.2773101,45.9681296 75.0092773,45.917808 74.7550516,45.8507857 L74.7550516,44.0583239 C74.9961277,44.0851328 75.210028,44.1051296 75.3978482,44.1187538 C75.5852301,44.1319385 75.7660371,44.1387506 75.9402694,44.1387506 C76.3952458,44.1387506 76.8002537,44.0446997 77.155293,43.8570373 C77.5101133,43.6684959 77.8213206,43.2795468 78.0893534,42.6886519 L78.4910739,41.7626455 L74.5543009,32.3168971 L76.823923,32.3168971 L79.6359663,39.5271774 L82.5685476,32.3168971 L84.8182261,32.3168971 L80.017524,43.3331646 Z" id="Fill-2"></path>
                            <path d="M91.787649,34.0288662 C91.412666,34.0288662 91.0477644,34.0928121 90.6931634,34.2202643 C90.338124,34.3479363 90.0203419,34.5459268 89.7389403,34.8144554 C89.4577579,35.0829841 89.2335571,35.418535 89.0661188,35.821328 C88.8984613,36.224121 88.8151804,36.7075605 88.8151804,37.271207 C88.8151804,37.835293 88.9019678,38.3220287 89.0762001,38.731414 C89.2499941,39.1410191 89.4779206,39.4765701 89.759103,39.7382866 C90.0402854,40.0002229 90.3582867,40.1914013 90.7133261,40.3122611 C91.0679272,40.4333408 91.4262539,40.493551 91.787649,40.493551 C92.216107,40.493551 92.6143209,40.4129045 92.9829482,40.2518312 C93.3511371,40.090758 93.6689193,39.8694745 93.9369521,39.5873217 C94.2045466,39.3053885 94.4153786,38.9663217 94.5694482,38.5703408 C94.7235177,38.1745796 94.8006621,37.7346497 94.8006621,37.2512102 C94.8006621,36.7677707 94.7235177,36.3282803 94.5694482,35.9322994 C94.4153786,35.5360987 94.2012592,35.1970318 93.9268707,34.9150987 C93.6522631,34.6329459 93.3309744,34.4149586 92.9627854,34.2604777 C92.5943773,34.1064363 92.2027382,34.0288662 91.787649,34.0288662 Z M88.835124,33.5254299 C89.2098878,33.0822038 89.6819587,32.7332484 90.2511175,32.4781242 C90.8202762,32.2232197 91.4461975,32.0955478 92.1293196,32.0955478 C92.8251529,32.0955478 93.4679495,32.2262962 94.057271,32.4882325 C94.6465925,32.749949 95.1587697,33.1125287 95.5940217,33.5757516 C96.0290545,34.0389745 96.3672185,34.5861401 96.6082946,35.2172484 C96.8493707,35.8483567 96.9699088,36.5330828 96.9699088,37.271207 C96.9699088,38.0099904 96.8493707,38.6909809 96.6082946,39.3154968 C96.3672185,39.939793 96.0323419,40.4836624 95.604103,40.9468854 C95.1754259,41.4098885 94.6667552,41.7724682 94.0774337,42.0341847 C93.4881122,42.296121 92.8453156,42.4268694 92.1492631,42.4268694 C91.412666,42.4268694 90.7398445,42.2862325 90.1305794,42.0038599 C89.5210951,41.7221465 89.0358747,41.3191338 88.6744797,40.7957006 L88.6744797,42.2053662 L86.7261463,42.2053662 L86.7261463,27.1009586 L88.835124,27.1009586 L88.835124,33.5254299 Z" id="Fill-4"></path>
                            <path d="M103.818969,33.8878777 C103.09596,33.8878777 102.479901,34.1063045 101.97123,34.5424987 C101.462121,34.978693 101.127683,35.5662917 100.966819,36.3046357 L106.329886,36.3046357 C106.30271,35.5262981 106.045197,34.9285911 105.55647,34.5123936 C105.067524,34.0964159 104.488503,33.8878777 103.818969,33.8878777 M103.879238,32.0954159 C104.535403,32.0954159 105.144668,32.2096834 105.707033,32.437779 C106.269617,32.666314 106.75155,32.9816484 107.153271,33.3842217 C107.554991,33.7872344 107.869267,34.2675975 108.097193,34.8244318 C108.324901,35.3817057 108.438645,35.9824892 108.438645,36.6267822 C108.438645,36.8955306 108.421769,37.150435 108.388676,37.3923745 C108.354926,37.6336548 108.318326,37.8219764 108.27822,37.956021 L100.926713,37.956021 C101.073989,38.7752312 101.435384,39.4131516 102.011336,39.8693427 C102.586851,40.3257535 103.29671,40.553849 104.140477,40.553849 C104.715991,40.553849 105.23825,40.450349 105.707033,40.2420306 C106.175817,40.0337121 106.610849,39.7484828 107.01257,39.3859032 L108.036924,40.8360019 C107.514885,41.3326261 106.925563,41.7222344 106.269617,42.0039478 C105.613452,42.2861006 104.890223,42.4269573 104.100151,42.4269573 C103.337036,42.4269573 102.627176,42.2959892 101.97123,42.0342726 C101.314846,41.7723363 100.752481,41.4099764 100.283916,40.9469732 C99.8149138,40.4835306 99.446944,39.9368045 99.1791303,39.3054764 C98.9110975,38.6743682 98.7774098,37.9964541 98.7774098,37.2712949 C98.7774098,36.5463554 98.9080293,35.8684414 99.1692681,35.2371134 C99.430507,34.6064446 99.791902,34.0590592 100.253672,33.5958363 C100.715881,33.1326134 101.254577,32.7671771 101.870636,32.4984287 C102.486475,32.2299 103.156229,32.0954159 103.879238,32.0954159" id="Fill-6"></path>
                            <path d="M115.689579,32.2162758 C115.863592,32.2162758 116.014155,32.2263841 116.141706,32.2466006 C116.268819,32.2665975 116.38585,32.2903299 116.49302,32.3169191 L116.49302,34.1900274 L115.850223,34.1900274 C115.461871,34.1900274 115.090176,34.2471611 114.735356,34.3612089 C114.380535,34.4754764 114.072615,34.646658 113.811596,34.8747535 C113.550357,35.1032885 113.342812,35.3882981 113.188962,35.7306611 C113.034892,36.0730242 112.957967,36.4727408 112.957967,36.9289318 L112.957967,42.2054541 L110.84877,42.2054541 L110.84877,32.3169191 L112.797323,32.3169191 L112.797323,33.646158 C113.145349,33.1763427 113.57052,32.8205752 114.072615,32.5786357 C114.57493,32.3371357 115.113626,32.2162758 115.689579,32.2162758" id="Fill-8"></path>
                            <path d="M122.518849,28.6919799 C123.496084,28.6919799 124.353,28.916999 125.089597,29.3665978 C125.825975,29.816636 126.395133,30.3835787 126.797073,31.0683048 L125.310729,32.2162538 C124.962265,31.7062252 124.553969,31.3100245 124.085405,31.0280914 C123.616622,30.7461583 123.094363,30.6050818 122.518849,30.6050818 C121.983002,30.6050818 121.514438,30.73605 121.112717,30.9979863 C120.710997,31.2597029 120.510246,31.6660118 120.510246,32.2162538 C120.510246,32.4715978 120.556927,32.689585 120.650947,32.8708748 C120.744309,33.0519449 120.871641,33.2132379 121.032286,33.3543143 C121.193149,33.495171 121.387106,33.622843 121.614813,33.7368908 C121.842521,33.8511583 122.090172,33.9753143 122.357985,34.1093589 L123.844548,34.794085 C124.33985,35.0226201 124.788252,35.2643398 125.189972,35.5190245 C125.591693,35.7743685 125.92635,36.0527857 126.194383,36.3549354 C126.462196,36.657085 126.669522,36.9893398 126.817017,37.3519194 C126.964292,37.714499 127.03793,38.1241041 127.03793,38.5802952 C127.03793,39.1711901 126.924186,39.7049513 126.696479,40.1813589 C126.468552,40.6582061 126.154277,41.060999 125.752556,41.3897379 C125.350836,41.7189162 124.878984,41.9738207 124.336563,42.1553303 C123.794141,42.3364003 123.208326,42.4269354 122.578899,42.4269354 C121.467319,42.4269354 120.48307,42.168515 119.626374,41.6516742 C118.769458,41.1350532 118.086336,40.4334067 117.577665,39.5469545 L119.083952,38.3990054 C119.271553,38.6811583 119.482385,38.9499067 119.716887,39.2048111 C119.950731,39.4599354 120.208901,39.6847347 120.490084,39.879429 C120.771266,40.0741232 121.082473,40.2288239 121.424144,40.3426519 C121.765376,40.4566997 122.143647,40.5138334 122.558955,40.5138334 C123.241858,40.5138334 123.794141,40.349464 124.216025,40.0202857 C124.637689,39.6915468 124.84874,39.2384322 124.84874,38.660722 C124.84874,38.4060373 124.80162,38.1810182 124.708039,37.9863239 C124.614238,37.7918494 124.480112,37.6206678 124.306319,37.4727793 C124.132086,37.3251105 123.927829,37.18755 123.693766,37.059878 C123.459265,36.9324258 123.194738,36.8014576 122.900406,36.6671933 L121.434225,35.9824672 C121.005548,35.7809608 120.603828,35.5662697 120.229064,35.3379545 C119.854081,35.1096392 119.525998,34.8479226 119.244816,34.5523653 C118.963414,34.2572475 118.74272,33.9249927 118.581857,33.555601 C118.421212,33.186429 118.341,32.7671551 118.341,32.2969003 C118.341,31.7464385 118.451237,31.2495946 118.672151,30.8065882 C118.893283,30.3635818 119.194409,29.9843016 119.576186,29.6687475 C119.957744,29.3534131 120.39979,29.1116933 120.901885,28.943808 C121.403981,28.7759226 121.942896,28.6919799 122.518849,28.6919799" id="Fill-10"></path>
                            <polygon id="Fill-12" points="139.652084 38.7213057 142.202889 32.3168312 144.432405 32.3168312 140.073968 42.4268694 139.350739 42.4268694 136.237351 35.821328 133.164069 42.4268694 132.441279 42.4268694 128.06246 32.3168312 130.312138 32.3168312 132.903049 38.7817357 135.895899 32.0955478 136.618909 32.0955478"></polygon>
                            <path d="M149.112349,40.7957885 C149.460376,40.7957885 149.788239,40.7388745 150.096598,40.624607 C150.404517,40.5105592 150.675619,40.349486 150.909901,40.1411675 C151.144183,39.9330688 151.328277,39.6847567 151.462403,39.3960115 C151.596091,39.107486 151.663373,38.795228 151.663373,38.4596771 L151.663373,38.2781675 L149.132512,38.2781675 C148.569928,38.2781675 148.138183,38.3790306 147.836838,38.5803172 C147.535712,38.7818236 147.38493,39.0837535 147.38493,39.4867662 C147.38493,39.9163682 147.552149,40.2418108 147.887025,40.463314 C148.221683,40.6850369 148.630197,40.7957885 149.112349,40.7957885 M149.734983,32.0954159 C150.337674,32.0954159 150.886451,32.1830943 151.381972,32.3573522 C151.877273,32.5320497 152.302444,32.7902503 152.657483,33.1326134 C153.012084,33.4749764 153.289979,33.9047981 153.490949,34.4214191 C153.691919,34.9386994 153.792294,35.5394828 153.792294,36.2239892 L153.792294,42.2054541 L151.824017,42.2054541 L151.824017,41.0977185 C151.475553,41.5143554 151.033726,41.8397981 150.498318,42.074486 C149.962472,42.3093936 149.353426,42.4269573 148.670304,42.4269573 C148.148264,42.4269573 147.676193,42.3597153 147.25431,42.225451 C146.832646,42.0914064 146.471032,41.8969318 146.169687,41.6415879 C145.868342,41.3866834 145.637566,41.0845338 145.476702,40.7353586 C145.316058,40.3861834 145.235846,39.9970146 145.235846,39.5669732 C145.235846,38.6945847 145.563709,38.0065624 146.220094,37.5029064 C146.87604,36.9996898 147.759693,36.747642 148.871273,36.747642 L151.663373,36.747642 L151.663373,36.103349 C151.663373,35.4184032 151.482347,34.8947503 151.120952,34.5323904 C150.759557,34.1700306 150.237298,33.988521 149.554395,33.988521 C148.978443,33.988521 148.476128,34.1164127 148.047889,34.3710975 C147.619212,34.6264414 147.204122,34.989021 146.802402,35.4588363 L145.597241,34.2102439 C146.10613,33.4850847 146.715176,32.9513236 147.425255,32.6089605 C148.134676,32.2665975 148.904586,32.0954159 149.734983,32.0954159" id="Fill-14"></path>
                            <path d="M161.7864,34.0288662 C161.425005,34.0288662 161.066459,34.0928121 160.711858,34.2202643 C160.357038,34.3479363 160.038818,34.5424108 159.757635,34.8041274 C159.476453,35.0658439 159.248745,35.3983185 159.074732,35.8013312 C158.9005,36.2039045 158.813713,36.6871242 158.813713,37.2512102 C158.813713,37.8150764 158.897213,38.2985159 159.06487,38.7010892 C159.232089,39.1041019 159.456509,39.4398726 159.737472,39.7081815 C160.018874,39.9769299 160.336875,40.1747006 160.691696,40.3023726 C161.046297,40.4298248 161.411417,40.493551 161.7864,40.493551 C162.20149,40.493551 162.593129,40.4166401 162.961318,40.2621592 C163.329507,40.1078981 163.651014,39.8892516 163.925622,39.6073185 C164.20001,39.3256051 164.41413,38.986758 164.568199,38.5905573 C164.722269,38.1945764 164.799194,37.7546465 164.799194,37.271207 C164.799194,36.7879873 164.722269,36.3482771 164.568199,35.9520764 C164.41413,35.556535 164.203298,35.2172484 163.935703,34.9350955 C163.667671,34.6531624 163.349669,34.4316592 162.98148,34.270586 C162.612853,34.1095127 162.214858,34.0288662 161.7864,34.0288662 M162.127852,32.0955478 C162.823904,32.0955478 163.470207,32.2262962 164.066104,32.4882325 C164.661781,32.749949 165.173958,33.1125287 165.602635,33.5757516 C166.031093,34.0389745 166.36597,34.5826242 166.607046,35.2071401 C166.848122,35.8314363 166.96866,36.5128662 166.96866,37.2512102 C166.96866,37.9897739 166.848122,38.6742803 166.607046,39.3053885 C166.36597,39.9367166 166.027806,40.4836624 165.592554,40.9468854 C165.157302,41.4098885 164.645125,41.7724682 164.056022,42.0341847 C163.466701,42.296121 162.823904,42.4268694 162.127852,42.4268694 C161.444949,42.4268694 160.818808,42.3060096 160.249869,42.0645096 C159.680491,41.8227898 159.20842,41.4738344 158.833656,41.0172038 L158.833656,45.8307229 L156.724678,45.8307229 L156.724678,32.3168312 L158.673231,32.3168312 L158.673231,33.7469331 C159.034626,33.2230605 159.516778,32.8174108 160.119469,32.5284459 C160.72194,32.2399204 161.391255,32.0955478 162.127852,32.0955478" id="Fill-16"></path>
                            <path d="M2.5733122,18.2323051 L20.637803,4.41648344 L14.1789356,34.5666268 L20.637803,64.7169898 L2.5733122,50.9011682 L2.5733122,18.2323051 Z M18.0543437,34.5666268 L43.4902846,19.9181904 L43.4902846,49.1946268 L18.0543437,34.5666268 Z M23.5596455,2.98748025 L42.536719,17.5025312 L17.3365944,32.0173624 L23.5596455,2.98748025 Z M17.3365944,37.1161108 L42.5470196,51.620614 L23.5495642,66.145993 L17.3365944,37.1161108 Z M20.9555852,0.921435669 L1.34294738,15.9295949 C0.492167848,16.5774038 -6.57480315e-05,17.5847159 -6.57480315e-05,18.6537764 L-6.57480315e-05,50.4796968 C-6.57480315e-05,51.5487573 0.502249213,52.5562892 1.34294738,53.2036586 L20.9555852,68.2120376 C22.1756495,69.147493 23.8776469,69.147493 25.097492,68.2120376 L44.710349,53.2036586 C45.5611285,52.5562892 46.0533621,51.5487573 46.0533621,50.4796968 L46.0533621,18.6537764 C46.0533621,17.5847159 45.5510471,16.5774038 44.710349,15.9295949 L25.097492,0.921435669 C23.8776469,-0.0140197452 22.1756495,-0.0140197452 20.9555852,0.921435669 Z" id="Fill-18"></path>
                        </g>
                    </g>
                </g>
            </g>
        </g>
    </g>
</svg>
